icons/svg/window-restore.svg

﻿<?xml version="1.0" encoding="utf-8"?>
<!DOCTYPE svg PUBLIC "-//W3C//DTD SVG 1.1//EN" "http://www.w3.org/Graphics/SVG/1.1/DTD/svg11.dtd">
<svg xmlns="http://www.w3.org/2000/svg" xmlns:xlink="http://www.w3.org/1999/xlink" version="1.1" baseProfile="full" width="24" height="24" viewBox="0 0 24.00 24.00" enable-background="new 0 0 24.00 24.00" xml:space="preserve">
	<path fill="#000000" fill-opacity="1" stroke-width="0.2" stroke-linejoin="round" d="M 3.99992,8.00008L 7.99959,8.00041L 7.99927,4.00073L 19.9996,4.00041L 19.9996,16.0004L 15.9996,16.0004L 15.9999,20.0001L 3.99992,20.0001L 3.99992,8.00008 Z M 15.9999,7.99992L 15.9996,14.0004L 17.9994,14.0004L 17.9994,6.00041L 9.9991,6.00073L 9.99943,8.00024L 15.9999,7.99992 Z M 5.99984,12L 5.99984,18L 13.9998,18.0003L 13.9999,12.0001L 5.99984,12 Z "/>
</svg>

<svg xmlns="http://www.w3.org/2000/svg" version="1.1" baseProfile="full" width="24" height="24" viewBox="0 0 24.00 24.00" xml:space="preserve"><path fill="#000" fill-opacity="1" stroke-width=".2" stroke-linejoin="round" d="M4 8h4V4h12v12h-4v4H4V8zm12 0v6h2V6h-8v2h6zM6 12v6h8v-6H6z"/></svg>
